X:44
T:The silly bit chicken cast it a pickle and it will grow mickle
% subtitle inked, writing more like Blaikie's than Motherwell's
T:and it will do gude
Z:Jack Campin - http://www.campin.me.uk
S:Blaikie MS (NLS MS.1578) p16
N:Blaikie #43
M:6/8
L:1/8
V:1 midi program 1 74
V:2 midi program 1 46 bass middle = d transpose -24
Q:3/8=108
K:D Mixolydian
[V:1] A| Bcd  dAA| Bcd  dGG| Bcd dcB|{B}A2 G FD:|
[V:2] z| g3   f3 | g3   b3 | g3  g3 |   f2 g d2:|
%
[V:1] c|(cB)G ABc|(cB)G ADD|(cB)G ABc| (cB)G FD:|
[V:2] z| g3   d3 | g3   f3 | g3   d3 |  g2 G d2:|
W:Transcription (c) Jack Campin 2009, no mirroring or republication without permission

